X:1
T:Title
%%score { ( 1 4 ) | ( 2 3 ) }
L:1/8
M:4/4
K:G
V:1 treble nm="Grand Piano"
V:4 treble 
V:2 bass 
V:3 bass 
V:1
 z4 z2[Q:1/4=100] D>D | G2 G>F G2 [DG]>A | B6 B>c | d2 d>^c d2 B>G | [FA]6 [CD]>[CD] | %5
 [B,G]2 [B,G]>[_B,F] [=B,G]2 [DG]>A | B6 Bc | d2 B>G [CFA]2 [B,DG]>[A,DF] |[M:3/4] [B,DG]6 | %9
[M:1/4] [Gd]2 |[M:4/4] [Ge]2 [Ge]>[Ge] [Ge]2 [EGc]>[Ge] | d6 z2 | d2 d>d d2 B>G | %13
 [DFA]6[K:bass] [G,D]>[F,CD] | [G,B,G]2 [B,G]>[_B,F] [=B,G]2 [DG]>A | B6 Bc | %16
 d2 B>G [CFA]2 [B,DG]>[A,DF] |[M:3/4] [B,DG]6 |] %18
V:2
 z4 z2 [G,B,]>[G,B,] | [G,B,D]2 [G,B,D]>[G,_B,D] [G,=B,D]2 [B,,G,]>[D,F,D] | [G,D]6 [G,D]>[G,A,D] | %3
 [G,B,G]2 [G,B,G]>[G,_B,G] [G,=B,G]2 [G,DG]>[K:bass][E,^C] | [D,D]6 [D,F,]>[D,F,] | %5
 [G,,G,]2 [G,,D,]>[G,,D,] [G,,D,]2 [B,,G,]>[D,F,D] | z4 z2[K:treble] [G,D]2 | %7
 [G,B,G]2 [G,DG]>[G,B,D][K:bass] D,2 D,>D, |[M:3/4] G,,6 |[M:1/4] [G,B,]2 | %10
[M:4/4] [C,C]2 [C,C]>[C,C] [C,C]2 C,>[C,C] | [B,G]2 z2 z4 | %12
 [G,B,G]2 [G,B,G]>[G,B,G] [G,B,G]2 [G,DG]>[K:bass][E,^C] | D,2 D,>D, D,C, B,,>A,, | %14
 G,,2 [G,,D,]>[G,,D,] [G,,D,]2 [B,,G,]>[D,F,D] | z4 z2[K:treble] [G,D]2 | %16
 [G,B,G]2 [G,DG]>[K:bass][G,B,D] D,2 D,>D, |[M:3/4] G,,6 |] %18
V:3
 x8 | x8 | x8 | x15/2[K:bass] x/ | x8 | x8 | [G,D]6[K:treble] z A, | x4[K:bass] x4 |[M:3/4] x6 | %9
[M:1/4] x2 |[M:4/4] x8 | G,2- [G,-B,]>[G,-C] [G,D]2 [G,G]>[G,A,G] | x15/2[K:bass] x/ | x8 | x8 | %15
 [G,D]6[K:treble] z A, | x7/2[K:bass] x9/2 |[M:3/4] x6 |] %18
V:4
 x8 | x8 | x8 | x8 | x8 | x8 | x8 | x8 |[M:3/4] x6 |[M:1/4] x2 |[M:4/4] x8 | z2 G>A B2 B>c | x8 | %13
 x6[K:bass] x2 | x8 | x8 | x8 |[M:3/4] x6 |] %18

